Cloud/dashboard/static/tracks/bahrein.svg

<?xml version="1.0" encoding="UTF-8"?>
<!-- Uploaded to: SVG Find, www.svgfind.com, Generator: SVG Find Mixer Tools -->
<svg fill="#000000" width="800px" height="800px" version="1.1" viewBox="144 144 512 512" xmlns="http://www.w3.org/2000/svg">
 <path d="m611.96 499.81-133.07-215.54c-4.0234-6.5156-10.992-10.398-18.648-10.398-7.6172 0-14.566 3.8633-18.582 10.336-9.2617 14.934-17.09 30.188-23.262 45.336-5.1172 12.559-5.6328 23.309-1.5859 32.859 7.7148 18.199 30.809 27.477 53.145 36.453l4.1211 1.6602c16.594 6.707 22.953 23.609 25.367 36.605 0.72266 3.8789-0.31641 7.8398-2.8359 10.875-2.5234 3.0312-6.2305 4.7734-10.176 4.7734h-192.32c-2.3633 0-4.7461-0.11719-7.082-0.35156l-30.941-3.1172 5.2344-8.6016c5.0586-8.3125 15.117-12.859 24.746-11.117 13.969 2.5273 34.035 5.793 50.277 7.0078 14.188 1.0664 34.551 2.4805 51.449 3.6367 0.33594 0.023438 0.66797 0.035156 0.99219 0.035156h0.003906c5.9258 0 11.094-3.8398 12.863-9.5469 1.793-5.7812-0.28125-11.734-5.2773-15.16l-49.309-33.801c-7.0469-4.832-11.023-13.121-10.379-21.641l0.73438-9.6953c1.1055-14.617-7.2969-28.094-20.91-33.543l-11-4.3984c-2.8711-1.1484-5.4883-2.9492-7.5859-5.2031l-43.555-46.797c-3.6797-3.957-8.6445-6.1367-13.98-6.1367-9.5117 0-17.516 6.7891-19.031 16.141l-26.691 164.59c-2.1289 13.121-0.10938 26.348 5.8398 38.242l5.2773 10.57c2.4023 4.8008 1.4961 10.609-2.2656 14.445l-14.406 14.715c-3.1953 3.2695-4.1172 8.1055-2.3438 12.32 1.7695 4.2148 5.8711 6.9414 10.441 6.9414h281.42v4.8164h-44.02l-11.75-0.003906 14.105 8.5469 3.6719-3.418h43.129v-9.9453h79.84c10.703 0 21.508-2.3594 31.242-6.8203l10.848-4.9766c3.7617-1.7227 6.6055-4.9805 7.8047-8.9375 1.1953-3.9531 0.63281-8.2422-1.543-11.758zm-8.2773 8.7891c-0.35156 1.1602-1.1523 2.0781-2.2578 2.582l-10.855 4.9766c-8.3984 3.8516-17.727 5.8867-26.965 5.8867h-366.39c-0.17578 0-0.71094 0-0.99219-0.66016-0.17969-0.4375-0.10547-0.82812 0.22656-1.1641l14.41-14.715c6.8164-6.9648 8.4688-17.5 4.1055-26.211l-5.2773-10.566c-4.9805-9.9609-6.6719-21.031-4.8867-32.016l26.691-164.6c0.83594-5.1719 5.2031-7.5273 8.9062-7.5273 1.7344 0 4.2656 0.5 6.4648 2.8633l43.555 46.797c3.1211 3.3555 7.0234 6.0312 11.289 7.7422l11.004 4.3984c9.4297 3.7734 15.258 13.113 14.488 23.242l-0.73437 9.6914c-0.92188 12.156 4.7539 23.988 14.805 30.879l49.309 33.801c1.7969 1.2344 1.4961 2.9766 1.2812 3.6641-0.17188 0.54688-0.88672 2.3203-3.3398 2.3203h-0.019531c-16.879-1.1562-37.207-2.5703-51.379-3.6328-15.809-1.1875-35.492-4.3945-49.223-6.875-13.762-2.5-28.113 4.0117-35.336 15.879l-5.2305 8.5977c-1.8516 3.0312-2.0117 6.7422-0.42578 9.9258 1.582 3.1836 4.6367 5.293 8.1719 5.6445l30.934 3.0938c2.6758 0.26953 5.3984 0.40234 8.1055 0.40234h192.32c7 0 13.59-3.0859 18.066-8.4727 4.4727-5.3828 6.3125-12.418 5.0352-19.305-4.1367-22.254-15.066-37.559-31.609-44.246l-4.1484-1.668c-20.391-8.1914-41.473-16.664-47.52-30.934-2.9297-6.9102-2.3945-15.082 1.6367-24.984 5.9609-14.617 13.523-29.355 22.477-43.801 2.1328-3.4375 5.8203-5.4883 9.8672-5.4883 4.0703 0 7.7852 2.0703 9.9219 5.5312l133.07 215.55c0.63672 1.0312 0.79688 2.2383 0.44531 3.3984z"/>
</svg>

<?xml version="1.0" encoding="utf-8"?>
<svg fill="#000000" width="800px" height="800px" version="1.1" viewBox="144 144 512 512" xmlns="http://www.w3.org/2000/svg">
  <path d="M 611.96 499.81 L 478.89 284.27 C 474.867 277.754 467.898 273.872 460.242 273.872 C 452.625 273.872 445.676 277.735 441.66 284.208 C 432.398 299.142 424.57 314.396 418.398 329.544 C 413.281 342.103 412.765 352.853 416.812 362.403 C 424.527 380.602 447.621 389.88 469.957 398.856 L 474.078 400.516 C 490.672 407.223 497.031 424.125 499.445 437.121 C 500.168 441 499.129 444.961 496.609 447.996 C 494.086 451.027 490.379 452.77 486.433 452.77 L 294.113 452.77 C 291.75 452.77 289.367 452.652 287.031 452.418 L 256.09 449.301 L 261.325 440.699 C 266.383 432.387 276.442 427.84 286.071 429.582 C 300.04 432.11 320.106 435.375 336.348 436.59 C 350.536 437.656 370.899 439.071 387.797 440.227 C 388.133 440.25 388.465 440.262 388.789 440.262 L 388.793 440.262 C 394.719 440.262 399.887 436.422 401.656 430.715 C 403.449 424.934 401.375 418.981 396.378 415.555 L 347.069 381.754 C 340.023 376.922 336.046 368.633 336.69 360.113 L 337.425 350.418 C 338.53 335.801 330.128 322.324 316.515 316.875 L 305.515 312.476 C 302.644 311.328 300.027 309.527 297.929 307.273 L 254.374 260.476 C 250.694 256.519 245.729 254.34 240.394 254.34 C 230.882 254.34 222.878 261.129 221.363 270.481 L 194.672 435.071 C 192.543 448.192 194.563 461.419 200.512 473.313 L 205.789 483.883 C 208.191 488.683 207.285 494.492 203.523 498.328 L 189.117 513.043 C 185.922 516.312 185 521.148 186.774 525.363 C 188.543 529.577 192.645 532.304 197.215 532.304 L 563.611 532.3 C 574.314 532.3 585.119 529.941 594.853 525.48 L 605.701 520.503 C 609.462 518.78 612.306 515.523 613.505 511.566 C 614.701 507.612 614.138 503.323 611.962 499.808 L 611.96 499.81 Z M 603.683 508.599 C 603.331 509.759 602.53 510.677 601.425 511.181 L 590.57 516.158 C 582.172 520.009 572.843 522.044 563.605 522.044 L 197.215 522.044 C 197.039 522.044 196.504 522.044 196.223 521.384 C 196.043 520.947 196.117 520.556 196.449 520.22 L 210.859 505.505 C 217.676 498.54 219.328 488.005 214.965 479.294 L 209.687 468.728 C 204.707 458.767 203.016 447.697 204.801 436.712 L 231.492 272.112 C 232.328 266.94 236.695 264.585 240.398 264.585 C 242.132 264.585 244.664 265.085 246.863 267.448 L 290.418 314.245 C 293.539 317.601 297.441 320.276 301.707 321.987 L 312.711 326.386 C 322.14 330.159 327.969 339.499 327.199 349.628 L 326.464 359.319 C 325.543 371.475 331.218 383.307 341.269 390.198 L 390.578 423.999 C 392.375 425.234 392.074 426.976 391.86 427.663 C 391.688 428.21 390.973 429.984 388.52 429.984 L 388.5 429.984 C 371.621 428.827 351.293 427.413 337.121 426.351 C 321.312 425.163 301.629 421.956 287.898 419.476 C 274.136 416.976 259.785 423.487 252.562 435.355 L 247.332 443.952 C 245.48 446.984 245.32 450.695 246.906 453.878 C 248.488 457.062 251.543 459.171 255.078 459.523 L 286.012 462.617 C 288.688 462.886 291.41 463.019 294.117 463.019 L 486.437 463.019 C 493.437 463.019 500.027 459.933 504.503 454.546 C 508.976 449.163 510.816 442.128 509.539 435.241 C 505.402 412.987 494.473 397.682 477.93 390.995 L 473.781 389.327 C 453.39 381.136 432.308 372.663 426.261 358.393 C 423.331 351.483 423.867 343.311 427.898 333.409 C 433.859 318.792 441.421 304.054 450.375 289.608 C 452.508 286.171 456.195 284.12 460.242 284.12 C 464.312 284.12 468.027 286.19 470.164 289.651 L 603.234 505.201 C 603.871 506.232 604.031 507.439 603.679 508.6 L 603.683 508.599 Z"/>
</svg>
